X: 25
T:Hundred Pipers,The
S:The Portland Collection
M:6/8
L:1/8
Q:300
K:A
A/2B/2|"A"c2E EFE|"D"F2A A2f|"A"e2c cBA|"Bm"BcB "E7"BAB|
"A"c2E EFE|"D"F2A A2f|"A"e2c "E7"BAB|"A"A3 -A2::
c/2d/2|"A"e2e ece|"D"f2a agf|"A"e2c cBA|"Bm"BcB "E7"Bcd|
"A"e2e ece|"D"f2a agf|"A"e2c "E"BAB|"A"A3 -A2:|

